src/lib/packages/icons/src/assets/line/user-settings.svg

<svg xmlns="http://www.w3.org/2000/svg" width="24" height="24" fill="none"><path fill="currentColor" d="M10.009 10.75a4.255 4.255 0 0 0 4.25-4.25 4.255 4.255 0 0 0-4.25-4.25 4.255 4.255 0 0 0-4.25 4.25 4.255 4.255 0 0 0 4.25 4.25Zm0-7a2.752 2.752 0 0 1 2.75 2.75 2.752 2.752 0 0 1-2.75 2.75 2.752 2.752 0 0 1-2.75-2.75 2.752 2.752 0 0 1 2.75-2.75Zm2.872 10.06a5.514 5.514 0 0 0-.881-.06H8c-3.943 0-4.25 3.269-4.25 4.27 0 1.563.673 2.23 2.25 2.23h5a.75.75 0 0 1 0 1.5H6c-2.418 0-3.75-1.325-3.75-3.73 0-2.662 1.506-5.77 5.75-5.77h4c.421 0 .787.026 1.119.08.409.065.688.45.621.859a.756.756 0 0 1-.859.621Zm9.352 3.688.133-.074a.748.748 0 0 0 .278-1.038l-.916-1.538a.75.75 0 0 0-1.011-.271l-.133.074a.662.662 0 0 1-.644 0 .58.58 0 0 1-.303-.5.902.902 0 0 0-.904-.899h-1.524a.902.902 0 0 0-.904.899.579.579 0 0 1-.303.5.66.66 0 0 1-.644 0 .91.91 0 0 0-1.219.324l-.763 1.281a.903.903 0 0 0-.099.687.904.904 0 0 0 .426.553l.02.011a.58.58 0 0 1 .289.493.581.581 0 0 1-.308.506.91.91 0 0 0-.426.551.891.891 0 0 0 .096.687l.766 1.283a.9.9 0 0 0 1.219.323.66.66 0 0 1 .643.001.578.578 0 0 1 .302.5c0 .496.405.899.903.899h1.527a.902.902 0 0 0 .903-.899c0-.204.116-.395.303-.5a.66.66 0 0 1 .644 0 .91.91 0 0 0 1.219-.324l.768-1.288a.892.892 0 0 0-.332-1.233l-.019-.01a.58.58 0 0 1-.289-.494.588.588 0 0 1 .302-.504Zm-1.224 1.931-.237.398a2.174 2.174 0 0 0-1.566.216 2.096 2.096 0 0 0-.976 1.207h-.515a2.094 2.094 0 0 0-.976-1.207 2.164 2.164 0 0 0-1.566-.216l-.237-.397c.368-.384.58-.896.578-1.435a2.07 2.07 0 0 0-.578-1.424l.237-.398a2.17 2.17 0 0 0 1.566-.216c.476-.268.821-.704.976-1.207h.515c.154.502.5.938.976 1.207.48.27 1.044.342 1.566.216l.237.398a2.069 2.069 0 0 0-.577 1.431c0 .536.212 1.045.577 1.427ZM19.02 18a1 1 0 0 1-1 1 1.005 1.005 0 0 1-1.005-1c0-.552.443-1 .995-1h.01a1 1 0 0 1 1 1Z"/></svg>

<svg width="24" height="24" viewBox="0 0 24 24" fill="none" xmlns="http://www.w3.org/2000/svg">
<path d="M10.009 10.75C12.353 10.75 14.259 8.843 14.259 6.5C14.259 4.157 12.353 2.25 10.009 2.25C7.66503 2.25 5.75903 4.157 5.75903 6.5C5.75903 8.843 7.66503 10.75 10.009 10.75ZM10.009 3.75C11.526 3.75 12.759 4.983 12.759 6.5C12.759 8.017 11.526 9.25 10.009 9.25C8.49203 9.25 7.25903 8.017 7.25903 6.5C7.25903 4.983 8.49203 3.75 10.009 3.75ZM12.881 13.8101C12.629 13.7691 12.341 13.75 12 13.75H8C4.057 13.75 3.75 17.019 3.75 18.02C3.75 19.583 4.423 20.25 6 20.25H11C11.414 20.25 11.75 20.586 11.75 21C11.75 21.414 11.414 21.75 11 21.75H6C3.582 21.75 2.25 20.425 2.25 18.02C2.25 15.358 3.756 12.25 8 12.25H12C12.421 12.25 12.787 12.276 13.119 12.33C13.528 12.395 13.807 12.78 13.74 13.189C13.675 13.598 13.278 13.8751 12.881 13.8101ZM22.233 17.498L22.366 17.424C22.543 17.325 22.672 17.159 22.724 16.964C22.777 16.768 22.747 16.56 22.644 16.386L21.728 14.848C21.52 14.499 21.075 14.379 20.717 14.577L20.584 14.651C20.387 14.762 20.1399 14.763 19.9399 14.651C19.7529 14.546 19.637 14.354 19.637 14.151C19.637 13.655 19.232 13.252 18.733 13.252H17.209C16.71 13.252 16.3051 13.655 16.3051 14.151C16.3051 14.355 16.189 14.546 16.002 14.651C15.803 14.763 15.556 14.763 15.358 14.651C14.932 14.414 14.388 14.559 14.139 14.975L13.376 16.256C13.253 16.461 13.217 16.712 13.277 16.943C13.338 17.175 13.493 17.377 13.703 17.496C13.71 17.499 13.716 17.503 13.723 17.507C13.902 17.614 14.012 17.801 14.012 18C14.013 18.205 13.897 18.398 13.704 18.506C13.495 18.625 13.34 18.826 13.278 19.057C13.216 19.29 13.25 19.534 13.374 19.744L14.14 21.027C14.392 21.449 14.926 21.592 15.359 21.35C15.556 21.239 15.802 21.239 16.002 21.351C16.189 21.456 16.304 21.647 16.304 21.851C16.304 22.347 16.709 22.75 17.207 22.75H18.734C19.232 22.75 19.637 22.347 19.637 21.851C19.637 21.647 19.7529 21.456 19.9399 21.351C20.1389 21.239 20.386 21.239 20.584 21.351C21.011 21.588 21.553 21.443 21.803 21.027L22.571 19.739C22.693 19.531 22.7259 19.2881 22.6639 19.0551C22.6019 18.8211 22.45 18.626 22.239 18.506C22.233 18.503 22.226 18.499 22.22 18.496C22.041 18.389 21.931 18.201 21.931 18.002C21.932 17.796 22.048 17.603 22.233 17.498ZM21.009 19.429L20.772 19.827C20.247 19.702 19.6841 19.774 19.2061 20.043C18.7301 20.311 18.385 20.747 18.23 21.25H17.715C17.561 20.748 17.216 20.312 16.739 20.043C16.262 19.774 15.697 19.7 15.173 19.827L14.936 19.4301C15.304 19.0461 15.516 18.534 15.514 17.995C15.513 17.46 15.3 16.952 14.936 16.571L15.173 16.173C15.697 16.298 16.261 16.227 16.739 15.957C17.215 15.689 17.56 15.253 17.715 14.75H18.23C18.384 15.252 18.7301 15.688 19.2061 15.957C19.6851 16.227 20.25 16.299 20.772 16.173L21.009 16.571C20.643 16.954 20.431 17.465 20.432 18.002C20.432 18.538 20.644 19.047 21.009 19.429ZM19.02 18C19.02 18.552 18.573 19 18.02 19C17.468 19 17.015 18.552 17.015 18C17.015 17.448 17.458 17 18.01 17H18.02C18.572 17 19.02 17.448 19.02 18Z" fill="currentColor"/>
</svg>
